X:1
T:Title
%%score { ( 1 3 4 ) | ( 2 5 ) }
L:1/8
M:9/8
K:F
V:1 treble nm="Grand Piano"
V:3 treble 
V:4 treble 
V:2 bass 
V:5 bass 
V:1
 z3 z3[Q:1/4=100] A2 B | .c6 z3 | C3 F3 A2 A | C2 C z A[GB] [GB][^FA][GB] |[M:3/4] [_Ad]3 [=Ac]3 | %5
[M:3/8] A2 B |[M:9/8] .c6 z3 | C3 F3 [Af]2 [Af] | e3- edc =BA[DFB] |[M:3/4] [CEc]6 |[M:3/8] c2 c | %11
[M:9/8] .[Bd]6 z3 | [CAc]3 [CFA]3 A2 A | .[FA]6 z3 |[M:3/4] [CEG]6 |[M:3/8] A2 B | %16
[M:9/8] [Ac]2- [FA-c-] [FAc]AF Acf | [Fe]3 [Fd]3 GBd | c2- [Fc-] cB[CFA] [CEA]2 [B,EG] | %19
[M:3/4] [A,CF]6 |] %20
V:2
 z9 | [F,A,F]2 [F,A,] A,B,[F,A,F] [CF][A,C][F,B,] | [F,A,]3 [F,A,C]3[K:treble] F2 F | %3
 C,2 C, z F[C,C] [C,C]2 [C,C] |[M:3/4] [F,=B,]3 [F,C]3 |[M:3/8] z3 | %6
[M:9/8] [F,A,F]2 [F,A,] A,B,[F,A,F] [CF][A,C][F,B,] | [F,A,]3 [F,A,C]3 [F,C]2 [F,C] | %8
 [G,G]3- [G,G]-[G,FG][G,EG] G^F[K:bass]G, |[M:3/4] C,6 |[M:3/8][K:treble] A2 A | %11
[M:9/8][K:bass] [C,C]2 C, z A[C,C] z FC, | F,3 F,3[K:treble] F2 F | D,2 D, z ED, z EG,, | %14
[M:3/4] C,6 |[M:3/8][K:treble] F2 G |[M:9/8][K:bass] F,2 F, z [CF][F,A,C] [F,F]-[F,A,F][A,,CF] | %17
 [B,,B,]3 [B,,B,]3 z3 | z3 .A,3 z3 |[M:3/4] F,6 |] %20
V:3
 x9 | z2 F z dc AFD | x9 | .[EG]6 z3 |[M:3/4] x6 |[M:3/8] x3 |[M:9/8] z2 F z dc AFD | x9 | x9 | %9
[M:3/4] x6 |[M:3/8] x3 |[M:9/8] z2 C z c[GB] [GB]A[CGB] | x9 | D2 D z G[A,DF] .[=B,DF]2 [B,DF] | %14
[M:3/4] x6 |[M:3/8] x3 |[M:9/8] .C3 z3 z3 | x9 | .F3 .F3 z3 |[M:3/4] x6 |] %20
V:4
 x9 | z3 .F3 z3 | x9 | z3 .C3 z3 |[M:3/4] x6 |[M:3/8] x3 |[M:9/8] z3 .F3 z3 | x9 | x9 |[M:3/4] x6 | %10
[M:3/8] x3 |[M:9/8] z3 .C3 z3 | x9 | z3 .A,3 z3 |[M:3/4] x6 |[M:3/8] x3 |[M:9/8] x9 | x9 | x9 | %19
[M:3/4] x6 |] %20
V:5
 x9 | z3 .F,3 .F,3 | x6[K:treble] x3 | z3 .C,3 z3 |[M:3/4] x6 |[M:3/8] x3 |[M:9/8] z3 .F,3 .F,3 | %7
 x9 | .C6 .[G,D]3[K:bass] |[M:3/4] x6 |[M:3/8][K:treble] x3 |[M:9/8][K:bass] z3 .C,3 .[C,C]3 | %12
 x6[K:treble] x3 | z3 .D,3 .G,,3 |[M:3/4] x6 |[M:3/8][K:treble] x3 |[M:9/8][K:bass] z3 .F,3 .C3 | %17
 x9 | [C,A,]2 [C,A,] C,-[C,D]C, C,2 C, |[M:3/4] x6 |] %20

